X: 1
T: Finbar Dwyer's Favorite
M: 6/8
L: 1/8
D: The Dangerous Reel, Mike and Mary Rafferty
K: Dmix
|FGA cAA|BAG cAG|FGA cAG|Ad^c dAG|
|FGA cAG|Ade fef|dcA GEA|1 DED DAG:|2 DED DE/F/G||
A2 d d^cd|eag e2 A|dcA ~G3|AdB cAG|
|A2 d d^cd|eag e2 A|dcA GEA|1 DED DE/F/G:|2 DED DAG||
